raw/spot/spot-presentation.svg

<svg width="80" height="80" viewBox="0 0 80 80" fill="none" xmlns="http://www.w3.org/2000/svg">
<g id="&#231;&#169;&#186;&#231;&#138;&#182;&#230;&#128;&#129; Empty state/&#229;&#155;&#190;&#232;&#161;&#168;&#231;&#169;&#186;&#231;&#138;&#182;&#230;&#128;&#129;/&#233;&#128;&#154;&#231;&#148;&#168;">
<g id="Group 427318836">
<path id="Rectangle 34624128" d="M9.75 14.0375H70.25V47.9175C70.25 49.9223 68.6248 51.5475 66.62 51.5475H13.38C11.3752 51.5475 9.75 49.9223 9.75 47.9175V14.0375Z" fill="#E3E7F5"/>
<path id="Ellipse 375" d="M39.3944 42.4727C45.0746 42.4727 49.6794 37.8679 49.6794 32.1876H39.3944V21.9026C33.7141 21.9026 29.1094 26.5074 29.1094 32.1876C29.1094 37.8679 33.7141 42.4727 39.3944 42.4727Z" fill="#0066FF"/>
<path id="Ellipse 376" d="M41.2106 20.6925C46.5567 20.6925 50.8906 25.0264 50.8906 30.3725H41.2106V20.6925Z" fill="#0066FF" fill-opacity="0.5"/>
<rect id="Rectangle 34624129" x="7.33008" y="8.59253" width="65.34" height="3.63" rx="1.815" fill="#E3E7F5"/>
<rect id="Rectangle 34624133" x="9.75" y="12.2226" width="60.5" height="2.42" fill="#D3D8EA"/>
<rect id="Rectangle 34624130" x="19.4297" y="63.6476" width="41.14" height="7.26" rx="2.42" fill="#E3E7F5"/>
<path id="Rectangle 34624135" d="M19.4297 68.4875H60.5697C60.5697 69.824 59.4862 70.9075 58.1497 70.9075H21.8497C20.5132 70.9075 19.4297 69.824 19.4297 68.4875Z" fill="#D3D8EA"/>
<rect id="Rectangle 34624131" x="36.9746" y="51.5476" width="6.05" height="12.1" fill="#E3E7F5"/>
<rect id="Rectangle 34624134" x="36.9746" y="51.5476" width="6.05" height="2.42" fill="#D3D8EA"/>
</g>
</g>
</svg>

<svg width="80" height="80" viewBox="0 0 80 80" fill="none" xmlns="http://www.w3.org/2000/svg"><g id="ç©ºç¶æ Empty state/å¾è¡¨ç©ºç¶æ/éç¨"><g id="Group 427318836"><path id="Rectangle 34624128" d="M9.75 14.037h60.5v33.88a3.63 3.63 0 0 1-3.63 3.63H13.38a3.63 3.63 0 0 1-3.63-3.63v-33.88z" fill="#E3E7F5"/><path id="Ellipse 375" d="M39.394 42.473c5.68 0 10.285-4.605 10.285-10.285H39.394V21.903c-5.68 0-10.285 4.604-10.285 10.285 0 5.68 4.605 10.285 10.285 10.285z" fill="#06F"/><path id="Ellipse 376" d="M41.21 20.692c5.347 0 9.68 4.334 9.68 9.68h-9.68v-9.68z" fill="#06F" fill-opacity=".5"/><rect id="Rectangle 34624129" x="7.33" y="8.593" width="65.34" height="3.63" rx="1.815" fill="#E3E7F5"/><path id="Rectangle 34624133" fill="#D3D8EA" d="M9.75 12.223H70.25V14.643H9.75z"/><rect id="Rectangle 34624130" x="19.43" y="63.648" width="41.14" height="7.26" rx="2.42" fill="#E3E7F5"/><path id="Rectangle 34624135" d="M19.43 68.487h41.14a2.42 2.42 0 0 1-2.42 2.42h-36.3a2.42 2.42 0 0 1-2.42-2.42z" fill="#D3D8EA"/><path id="Rectangle 34624131" fill="#E3E7F5" d="M36.975 51.548H43.025V63.648H36.975z"/><path id="Rectangle 34624134" fill="#D3D8EA" d="M36.975 51.548H43.025V53.968H36.975z"/></g></g></svg>
